X: 1
T: the Lark in the Morning
O: Ireland
R: jig
Z: 2014 John Chambers <jc:trillian.mit.edu>
S: handwritten MS by John Chambers (1970s)
M: 6/8
L: 1/8
K: D
|:\
"D"AFA AFA | "G"BGB BdB | "D"AFA Ade | fed "G"BdB |\
"D"AFA AFA | "G"BGB BdB | "D"def afe | fed "G"BdB :|
|:\
"D"def a2a | baf afe | def a2a | fed "G"BdB |\
"D"def a2a | baf a2a | "G"gag "D"faf | "G"edB BdB :|
|:\
"D"A2f fdf | fdf fed | A2f fdf | "G"edB BdB |\
"D"A2f fdf | fdf f2f | "G"gag "D"faf | "G"edB BdB :|
|:\
"D"ABd fed | "G"ede "D"fed | ABd fed | "G"efe edB |\
"D"ABd fed | "G"ede "D"f2f | "G"gag "D"faf | "G"edB BdB :|
